<?xml version="1.0" encoding="UTF-8"?>
<map version="1.10" tiledversion="1.12.2" orientation="orthogonal" renderorder="right-down" width="40" height="23" tilewidth="8" tileheight="8" infinite="0" nextlayerid="8" nextobjectid="35">
 <tileset firstgid="1" source="../tiles/Foregound.tsx"/>
 <layer id="1" name="Terrain" width="40" height="23">
  <data encoding="csv">
5,5,5,5,5,5,5,7,7,7,7,7,7,4,7,7,4,5,5,5,5,5,5,5,5,5,5,5,5,5,5,5,5,1,1,7,7,7,7,7,
1,1,1,5,5,7,7,7,0,0,0,0,0,4,0,0,4,7,7,5,5,5,5,5,5,5,5,5,5,5,5,1,1,1,0,0,0,0,0,0,
0,0,1,1,1,7,0,0,0,0,0,0,0,4,4,0,4,0,7,1,1,1,1,1,1,1,5,5,5,5,1,1,0,0,0,0,0,0,0,0,
0,0,0,0,0,0,0,0,0,0,0,0,0,4,0,4,4,0,0,0,0,0,0,0,0,1,1,1,1,1,1,0,0,0,0,0,0,0,0,0,
0,0,0,0,0,0,0,0,0,0,0,0,0,4,4,4,4,0,0,0,0,0,0,0,0,0,0,0,0,0,0,0,0,0,0,0,0,0,0,0,
0,0,0,0,0,0,0,0,0,0,0,0,0,0,0,0,0,0,0,0,0,0,0,0,0,0,0,0,0,0,0,0,0,0,0,0,0,0,0,0,
0,0,0,0,0,0,0,0,0,0,0,0,0,0,0,0,0,0,0,0,0,0,0,0,0,0,0,0,0,0,0,0,0,0,0,0,1,1,1,0,
0,0,0,0,0,0,0,0,0,0,0,0,0,0,0,0,0,0,0,0,0,0,0,0,0,0,0,0,0,0,0,0,0,0,0,0,1,1,1,1,
0,0,1,1,1,1,1,7,7,7,0,0,0,0,0,0,0,0,0,0,0,0,0,0,0,0,0,0,0,0,0,0,0,0,0,0,1,5,5,5,
0,0,1,5,5,5,5,5,7,7,0,0,0,0,0,0,0,0,0,0,0,0,0,0,0,0,0,0,0,0,0,4,4,4,4,4,4,5,5,5,
1,1,1,5,5,5,5,5,7,0,0,0,0,0,0,0,0,0,0,0,0,0,0,0,0,0,0,0,0,0,0,4,0,4,0,0,1,5,5,5,
5,5,5,5,5,5,5,5,7,0,0,0,0,0,0,0,0,0,0,0,0,0,0,0,0,0,0,0,0,0,0,4,0,0,4,0,1,5,5,5,
5,5,5,5,5,5,5,5,7,0,0,0,0,0,0,0,0,0,0,0,0,0,0,0,0,0,0,0,0,0,0,4,4,4,4,4,1,5,5,5,
5,5,5,5,5,5,5,5,7,0,7,7,7,7,7,0,0,0,0,0,0,7,7,7,0,0,0,0,0,0,0,0,0,0,0,0,1,5,5,5,
5,5,5,5,5,5,5,5,7,7,7,5,5,5,7,0,0,0,0,0,0,7,5,7,0,0,0,0,0,0,0,0,0,0,0,0,1,1,5,5,
5,5,5,5,5,5,5,5,5,5,5,5,5,5,7,0,0,0,0,0,0,7,5,7,0,0,0,0,0,0,0,0,0,0,0,0,0,1,1,5,
5,5,5,5,5,5,5,5,5,5,5,5,5,5,7,0,0,0,0,0,0,7,5,7,0,0,0,0,0,0,0,0,0,0,0,0,0,1,1,5,
5,5,5,5,5,5,5,5,5,5,5,5,5,5,7,0,0,0,0,0,7,7,5,7,0,0,0,0,0,0,0,0,0,0,0,0,0,0,1,1,
5,5,5,5,5,5,5,5,5,5,5,5,5,5,7,0,0,0,0,0,7,5,5,7,0,0,0,0,0,0,0,0,0,0,0,0,0,0,7,1,
5,5,5,5,5,5,5,5,5,5,5,5,5,5,7,0,0,0,0,0,7,5,5,7,7,7,7,7,0,0,0,0,0,0,0,0,0,0,0,0,
5,5,5,5,5,5,5,5,5,5,5,5,5,5,7,0,0,1,1,1,7,5,5,5,5,5,5,7,0,0,0,0,0,0,0,0,0,0,0,0,
5,5,5,5,5,5,5,5,5,5,5,5,5,5,1,0,0,1,5,5,5,5,5,5,5,5,5,7,4,0,0,0,0,0,0,0,0,0,0,0,
5,5,5,5,5,5,5,5,5,5,5,5,5,5,1,1,1,1,5,5,5,5,5,5,5,5,5,7,4,4,4,0,0,0,0,0,4,4,4,1
</data>
 </layer>
 <layer id="3" name="Spikes" width="40" height="23">
  <data encoding="csv">
0,0,0,0,0,0,0,0,0,0,0,0,0,0,0,0,0,0,0,0,0,0,0,0,0,0,0,0,0,0,0,0,0,0,0,0,0,0,0,0,
0,0,0,0,0,0,0,0,0,0,0,0,0,0,0,0,0,0,0,0,0,0,0,0,0,0,0,0,0,0,0,0,0,0,0,0,0,0,0,0,
0,0,0,0,0,0,2684354562,0,0,0,0,0,0,0,0,0,0,0,0,0,0,0,0,0,0,0,0,0,0,0,0,0,2684354562,0,0,0,0,0,0,0,
0,0,0,0,0,0,0,0,0,0,0,0,0,0,0,0,0,0,0,0,0,0,0,0,0,0,0,0,0,0,0,2684354562,0,0,0,0,0,0,0,0,
0,0,0,0,0,0,0,0,0,0,0,0,0,0,0,0,0,0,0,0,0,0,0,0,0,0,0,0,0,0,0,0,0,0,0,0,0,0,0,0,
0,0,0,0,0,0,0,0,0,0,0,0,0,3221225474,3221225474,3221225474,3221225474,0,0,0,0,0,0,0,0,0,0,0,0,0,0,0,0,0,0,0,0,0,0,0,
0,0,0,0,0,0,0,0,0,0,0,0,0,0,0,0,0,0,0,0,0,0,0,0,0,0,0,0,0,0,0,0,0,0,0,0,0,0,0,0,
0,0,0,0,0,0,0,0,0,0,0,0,0,0,0,0,0,0,0,0,0,0,0,0,0,0,0,0,0,0,0,0,0,0,0,0,0,0,0,0,
0,0,0,0,0,0,0,0,0,0,0,0,0,0,0,0,0,0,0,0,0,0,0,0,0,0,0,0,0,0,0,0,0,0,0,1610612738,0,0,0,0,
0,0,0,0,0,0,0,0,0,0,0,0,0,0,0,0,0,0,0,0,0,0,0,0,0,0,0,0,0,0,0,0,0,0,0,0,0,0,0,0,
0,0,0,0,0,0,0,0,0,0,0,0,0,0,0,0,0,0,0,0,0,0,0,0,0,0,0,0,0,0,0,0,0,0,0,0,0,0,0,0,
0,0,0,0,0,0,0,0,0,0,0,0,0,0,0,0,0,0,0,0,0,0,0,0,0,0,0,0,0,0,0,0,0,0,0,0,0,0,0,0,
0,0,0,0,0,0,0,0,0,0,0,0,0,0,0,0,0,0,0,0,0,0,0,0,0,0,0,0,0,0,1610612738,0,0,0,0,0,0,0,0,0,
0,0,0,0,0,0,0,0,0,2,0,0,0,0,0,0,0,0,0,0,0,0,0,0,0,0,0,0,0,0,0,0,0,0,0,0,0,0,0,0,
0,0,0,0,0,0,0,0,0,0,0,0,0,0,0,0,0,0,0,0,0,0,0,0,0,0,0,0,0,0,0,0,0,0,0,0,0,0,0,0,
0,0,0,0,0,0,0,0,0,0,0,0,0,0,0,0,0,0,0,0,0,0,0,0,0,0,0,0,0,0,0,0,0,0,0,0,1610612738,0,0,0,
0,0,0,0,0,0,0,0,0,0,0,0,0,0,0,0,0,0,0,0,2,0,0,0,0,0,0,0,0,0,0,0,0,0,0,0,1610612738,0,0,0,
0,0,0,0,0,0,0,0,0,0,0,0,0,0,0,0,0,0,0,0,0,0,0,0,0,0,0,0,0,0,0,0,0,0,0,0,0,1610612738,0,0,
0,0,0,0,0,0,0,0,0,0,0,0,0,0,0,0,0,0,0,0,0,0,0,0,0,0,0,0,0,0,0,0,0,0,0,0,0,0,0,0,
0,0,0,0,0,0,0,0,0,0,0,0,0,0,0,0,0,0,0,0,0,0,0,0,0,0,0,0,0,0,0,0,0,0,0,0,0,0,0,0,
0,0,0,0,0,0,0,0,0,0,0,0,0,0,0,0,0,0,0,0,0,0,0,0,0,0,0,0,0,0,0,0,0,0,0,0,0,0,0,0,
0,0,0,0,0,0,0,0,0,0,0,0,0,0,0,2,2,0,0,0,0,0,0,0,0,0,0,0,0,0,0,0,0,0,0,0,0,0,0,0,
0,0,0,0,0,0,0,0,0,0,0,0,0,0,0,0,0,0,0,0,0,0,0,0,0,0,0,0,0,0,0,0,0,0,0,0,0,0,0,0
</data>
 </layer>
 <objectgroup id="4" name="Death">
  <object id="15" x="104.934" y="40.7474" width="30.1459" height="2.88477"/>
  <object id="16" x="48.7883" y="15.7317" width="2.19049" height="7.76629"/>
  <object id="17" x="73.4811" y="107.334" width="4.97839" height="2.98704"/>
  <object id="19" x="121.672" y="172.252" width="12.1473" height="2.38963"/>
  <object id="20" x="161.698" y="132.425" width="4.58012" height="2.58876"/>
  <object id="21" x="257.505" y="16.7568" width="1.57095" height="5.89105"/>
  <object id="22" x="248.21" y="24.3497" width="2.61825" height="5.76014"/>
  <object id="23" x="244.021" y="97.2679" width="3.53463" height="6.28379"/>
  <object id="25" x="292.589" y="121.748" width="3.01098" height="14.1385"/>
  <object id="26" x="300.444" y="137.72" width="3.1419" height="5.89105"/>
  <object id="27" x="284.211" y="65.9798" width="2.74916" height="4.97467"/>
 </objectgroup>
 <objectgroup id="5" name="Entities"/>
 <objectgroup id="7" name="Boundaries"/>
</map>
